X: 22762
T: Landslide Village
R: hornpipe
M: 4/4
K: Dmajor
(3ABc|:dD D2 FDAF|EFGA BABc|dD D2 FDAF|BDcD dABc|
dD D2 FDAF|EFGA BABc|dAcA BdAF|GABc d2:|
(3BAG|:FD D2 FDAF|EFGA B2 AG|FD D2 FDAD|BDcD dBAG|
FD D2 FDAF|EFGA BABc|dAcA BdAF|GABc d2:|

